X:349
T:Miss Jean Milligan
C:Jimmy Shand
D:Jimmy Greenan, The Jeenius of Jim
Z:Nigel Gatherer
L:1/8
M:4/4
K:A
E2|A2 cB A2 ce|fefg a2 af|e2 c2 dcBA c2 B2 B2 cB|
A2 cB A2 ce|fefg a2 af|eagf edcB|c2 A2 A2||
e2|a2 ed cB A2|dcde f3 e|a2 e2 efec|d2 B2 B3 e|
a2 ed cB A2|dcde f3 d|eagf edcB|c2 A2 A2|]
<end>
<start>
